X:2458
T:Hanter dro klamm
O:england
C:Bleizi ruz
M:3/4
L:1/8
K:G
EF/G/ ED G2|GF/G/ BA F/A/G/F/|\
EF/G/ ED G2|1 GF/G/ BA F2:|2 GF/G/ BA B2||
|:BA/B/ G/B/d/A/ BG|\
M:2/4
L:1/8
c/B/A/B/ GA/F/|Gz3|\
M:3/4
L:1/8
BA/B/ G/B/d/A/ BG|c/B/A/B/ GF E2:|


